public/assets/hug-day/bg-hug.svg

<?xml version="1.0" encoding="UTF-8" standalone="no"?>
<svg
   width="2278"
   height="1441.3043"
   viewBox="0 0 2278 1441.3043"
   version="1.1"
   id="svg69"
   xmlns:xlink="http://www.w3.org/1999/xlink"
   xmlns="http://www.w3.org/2000/svg"
   xmlns:svg="http://www.w3.org/2000/svg">
  <defs
     id="defs21">
    <linearGradient
       id="hugGradient"
       x1="0"
       y1="0"
       x2="0"
       y2="1440"
       gradientTransform="matrix(1.3333333,0,0,0.75,136,243.47826)"
       gradientUnits="userSpaceOnUse">
      <stop
         offset="0%"
         style="stop-color:#FFE8F0;stop-opacity:1"
         id="stop2" />
      <stop
         offset="40%"
         style="stop-color:#FFD4E5;stop-opacity:1"
         id="stop4" />
      <stop
         offset="70%"
         style="stop-color:#FFDAB9;stop-opacity:1"
         id="stop6" />
      <stop
         offset="100%"
         style="stop-color:#F5E6D3;stop-opacity:1"
         id="stop8" />
    </linearGradient>
    <radialGradient
       id="warmGlow">
      <stop
         offset="0%"
         style="stop-color:#FFF4D4;stop-opacity:0.5"
         id="stop11" />
      <stop
         offset="50%"
         style="stop-color:#FFD4A3;stop-opacity:0.3"
         id="stop13" />
      <stop
         offset="100%"
         style="stop-color:#FFD4A3;stop-opacity:0"
         id="stop15" />
    </radialGradient>
    <filter
       id="cloudBlur"
       x="-0.03"
       y="-0.043478261"
       width="1.06"
       height="1.0869565">
      <feGaussianBlur
         in="SourceGraphic"
         stdDeviation="15"
         id="feGaussianBlur18" />
    </filter>
    <radialGradient
       xlink:href="#warmGlow"
       id="radialGradient73"
       gradientTransform="matrix(1.0817763,0,0,0.92440554,136,243.47826)"
       cx="462.20274"
       cy="324.53288"
       fx="462.20274"
       fy="324.53288"
       r="587.92189"
       gradientUnits="userSpaceOnUse" />
    <radialGradient
       xlink:href="#warmGlow"
       id="radialGradient75"
       gradientTransform="matrix(1.1140752,0,0,0.89760546,136,243.47826)"
       cx="1256.6476"
       cy="668.44512"
       fx="1256.6476"
       fy="668.44512"
       r="666.02322"
       gradientUnits="userSpaceOnUse" />
  </defs>
  <!-- Base gradient -->
  <rect
     width="1920"
     height="1080"
     fill="url(#hugGradient)"
     id="rect23"
     x="136"
     y="243.47826"
     style="fill:url(#hugGradient)" />
  <!-- Warm glows -->
  <ellipse
     cx="636"
     cy="543.47827"
     rx="600"
     ry="500"
     fill="url(#warmGlow)"
     filter="url(#cloudBlur)"
     id="ellipse25"
     style="fill:url(#radialGradient73)" />
  <ellipse
     cx="1536"
     cy="843.47827"
     rx="700"
     ry="550"
     fill="url(#warmGlow)"
     filter="url(#cloudBlur)"
     opacity="0.7"
     id="ellipse27"
     style="fill:url(#radialGradient75)" />
  <!-- Soft cloud shapes -->
  <g
     opacity="0.2"
     filter="url(#cloudBlur)"
     id="g57"
     transform="translate(136,243.47826)">
    <!-- Cloud 1 (top left) -->
    <ellipse
       cx="300"
       cy="200"
       rx="120"
       ry="60"
       fill="#ffffff"
       id="ellipse29" />
    <ellipse
       cx="350"
       cy="190"
       rx="100"
       ry="50"
       fill="#ffffff"
       id="ellipse31" />
    <ellipse
       cx="380"
       cy="210"
       rx="90"
       ry="45"
       fill="#ffffff"
       id="ellipse33" />
    <!-- Cloud 2 (top center) -->
    <ellipse
       cx="900"
       cy="150"
       rx="140"
       ry="70"
       fill="#ffffff"
       id="ellipse35" />
    <ellipse
       cx="960"
       cy="140"
       rx="110"
       ry="55"
       fill="#ffffff"
       id="ellipse37" />
    <ellipse
       cx="1000"
       cy="165"
       rx="95"
       ry="48"
       fill="#ffffff"
       id="ellipse39" />
    <!-- Cloud 3 (top right) -->
    <ellipse
       cx="1500"
       cy="220"
       rx="130"
       ry="65"
       fill="#ffffff"
       id="ellipse41" />
    <ellipse
       cx="1560"
       cy="210"
       rx="105"
       ry="52"
       fill="#ffffff"
       id="ellipse43" />
    <!-- Cloud 4 (middle left) -->
    <ellipse
       cx="250"
       cy="500"
       rx="110"
       ry="55"
       fill="#ffffff"
       id="ellipse45" />
    <ellipse
       cx="300"
       cy="490"
       rx="90"
       ry="45"
       fill="#ffffff"
       id="ellipse47" />
    <!-- Cloud 5 (middle right) -->
    <ellipse
       cx="1650"
       cy="550"
       rx="125"
       ry="62"
       fill="#ffffff"
       id="ellipse49" />
    <ellipse
       cx="1710"
       cy="540"
       rx="100"
       ry="50"
       fill="#ffffff"
       id="ellipse51" />
    <!-- Cloud 6 (bottom) -->
    <ellipse
       cx="800"
       cy="850"
       rx="115"
       ry="58"
       fill="#ffffff"
       id="ellipse53" />
    <ellipse
       cx="850"
       cy="840"
       rx="95"
       ry="47"
       fill="#ffffff"
       id="ellipse55" />
  </g>
  <!-- Tiny hearts -->
  <g
     opacity="0.15"
     id="g65"
     transform="translate(136,243.47826)">
    <path
       d="m 450,400 c 0,-3 2,-5 4,-5 1,0 2,1 2,2 0,-1 1,-2 2,-2 2,0 4,2 4,5 0,3 -6,7 -6,7 0,0 -6,-4 -6,-7 z"
       fill="#ffb6c1"
       id="path59" />
    <path
       d="m 1450,450 c 0,-3 2,-5 4,-5 1,0 2,1 2,2 0,-1 1,-2 2,-2 2,0 4,2 4,5 0,3 -6,7 -6,7 0,0 -6,-4 -6,-7 z"
       fill="#ffb6c1"
       id="path61" />
    <path
       d="m 950,650 c 0,-3 2,-5 4,-5 1,0 2,1 2,2 0,-1 1,-2 2,-2 2,0 4,2 4,5 0,3 -6,7 -6,7 0,0 -6,-4 -6,-7 z"
       fill="#ffb6c1"
       id="path63" />
  </g>
  <!-- Subtle overlay -->
  <rect
     width="1920"
     height="1080"
     fill="#ffffff"
     opacity="0.04"
     id="rect67"
     x="136"
     y="243.47826" />
</svg>

<svg width="1920" height="1080" viewBox="0 0 1920 1080" xmlns="http://www.w3.org/2000/svg">
  <defs>
    <linearGradient id="hugGradient" x1="0%" y1="0%" x2="0%" y2="100%">
      <stop offset="0%" style="stop-color:#FFE8F0;stop-opacity:1"/>
      <stop offset="40%" style="stop-color:#FFD4E5;stop-opacity:1"/>
      <stop offset="70%" style="stop-color:#FFDAB9;stop-opacity:1"/>
      <stop offset="100%" style="stop-color:#F5E6D3;stop-opacity:1"/>
    </linearGradient>
    
    <radialGradient id="warmGlow">
      <stop offset="0%" style="stop-color:#FFF4D4;stop-opacity:0.5"/>
      <stop offset="50%" style="stop-color:#FFD4A3;stop-opacity:0.3"/>
      <stop offset="100%" style="stop-color:#FFD4A3;stop-opacity:0"/>
    </radialGradient>
    
    <filter id="cloudBlur">
      <feGaussianBlur in="SourceGraphic" stdDeviation="15"/>
    </filter>
  </defs>
  
  <!-- Base gradient -->
  <rect width="1920" height="1080" fill="url(#hugGradient)"/>
  
  <!-- Warm glows -->
  <ellipse cx="500" cy="300" rx="600" ry="500" fill="url(#warmGlow)" filter="url(#cloudBlur)"/>
  <ellipse cx="1400" cy="600" rx="700" ry="550" fill="url(#warmGlow)" filter="url(#cloudBlur)" opacity="0.7"/>
  
  <!-- Soft cloud shapes -->
  <g opacity="0.2" filter="url(#cloudBlur)">
    <!-- Cloud 1 (top left) -->
    <ellipse cx="300" cy="200" rx="120" ry="60" fill="#FFFFFF"/>
    <ellipse cx="350" cy="190" rx="100" ry="50" fill="#FFFFFF"/>
    <ellipse cx="380" cy="210" rx="90" ry="45" fill="#FFFFFF"/>
    
    <!-- Cloud 2 (top center) -->
    <ellipse cx="900" cy="150" rx="140" ry="70" fill="#FFFFFF"/>
    <ellipse cx="960" cy="140" rx="110" ry="55" fill="#FFFFFF"/>
    <ellipse cx="1000" cy="165" rx="95" ry="48" fill="#FFFFFF"/>
    
    <!-- Cloud 3 (top right) -->
    <ellipse cx="1500" cy="220" rx="130" ry="65" fill="#FFFFFF"/>
    <ellipse cx="1560" cy="210" rx="105" ry="52" fill="#FFFFFF"/>
    
    <!-- Cloud 4 (middle left) -->
    <ellipse cx="250" cy="500" rx="110" ry="55" fill="#FFFFFF"/>
    <ellipse cx="300" cy="490" rx="90" ry="45" fill="#FFFFFF"/>
    
    <!-- Cloud 5 (middle right) -->
    <ellipse cx="1650" cy="550" rx="125" ry="62" fill="#FFFFFF"/>
    <ellipse cx="1710" cy="540" rx="100" ry="50" fill="#FFFFFF"/>
    
    <!-- Cloud 6 (bottom) -->
    <ellipse cx="800" cy="850" rx="115" ry="58" fill="#FFFFFF"/>
    <ellipse cx="850" cy="840" rx="95" ry="47" fill="#FFFFFF"/>
  </g>
  
  <!-- Tiny hearts -->
  <g opacity="0.15">
    <path d="M 450 400 C 450 397 452 395 454 395 C 455 395 456 396 456 397 C 456 396 457 395 458 395 C 460 395 462 397 462 400 C 462 403 456 407 456 407 C 456 407 450 403 450 400 Z" fill="#FFB6C1"/>
    <path d="M 1450 450 C 1450 447 1452 445 1454 445 C 1455 445 1456 446 1456 447 C 1456 446 1457 445 1458 445 C 1460 445 1462 447 1462 450 C 1462 453 1456 457 1456 457 C 1456 457 1450 453 1450 450 Z" fill="#FFB6C1"/>
    <path d="M 950 650 C 950 647 952 645 954 645 C 955 645 956 646 956 647 C 956 646 957 645 958 645 C 960 645 962 647 962 650 C 962 653 956 657 956 657 C 956 657 950 653 950 650 Z" fill="#FFB6C1"/>
  </g>
  
  <!-- Subtle overlay -->
  <rect width="1920" height="1080" fill="#FFFFFF" opacity="0.04"/>
</svg>
